X:445
T: Chris Droney's
S: "First Collection of Traditional Irish Music" (M.Mulvihill)
Z: B.Black
L: 1/8
M: 4/4
R: reel
K: Ador
eA (3cBA a2 bg|agef gedc|BG (3GFG DG (3GFG|Bdef gedg|
eA (3cBA a2 bg|agef gabg|agab gedB|GABG A2 Bd||
a2 ea agbg|agef gedc|BG (3GFG DG (3GFG|Bdef gedg|
eaag a2 bg|agef gabg|agab gedB|GABG A4 :|
